X:36
T:The Circus Reel
S:Petrie's Third Collection of Strathspey Reels and Country Dances &c.
Z:Steve Wyrick , 7/30/05
N:Petrie's Third Collection, page 15
L:1/8
M:C
R:Reel
K:F
A|F2FA cAAf|F2FA BGGA|F2FA cAAc|defg Aff:|g affc accg|
affd eggb|affc Accf|defg affg|affc Accg|affd efgb|afge fdcA|BdcB AFF|]
